X:1
T:Since I have placed my trust in God
T:Joseph Stephenson
T:Text: Tate/Brady, on Ps. 11.
T:This edition by Edmund Gooch released into the public domain, January 2011. As such, it may be freely copied and performed.
T:Since I have placed my trust in God
T:Ps. 11th. 4 Voce
C:Joseph Stephenson
Z:Text: Tate/Brady, on Ps. 11.
%%score [ 1 2 3 4 ]
L:1/8
M:3/2
K:C
V:1 treble nm="SOPRANO" snm="S."
V:2 treble nm="ALTO" snm="A."
V:3 treble-8 transpose=-12 nm="TENOR" snm="T."
V:4 bass nm="BASS" snm="B."
V:1
 e4 | c8 c4 | (B6 A2) G4 | (A3 B c4) B4 | c8 d4 | (e6 d2) (c2 d2) | e4 d8 | d12 | e4 c4 B4 | %9
w: The|Lord hath|both _ a|tem- * * ple|here, And|right- * eous _|throne a-|bove,|Whence he sur-|
w: Since|I have|placed _ my|trust _ _ in|God, A|re- * fuge _|al- ways|nigh,|Why should I,|
w: Be-|hold, the|wick- * ed|bend _ _ their|bow, And|rea- * dy _|fix their|dart;|Lurk- ing in|
 (c2 B2 A2 G2) (c2 B2) | (A6 B2) c4 | B8 B4 | (c6 B2) A4 | (d4 c4) B4 | c8 |] %15
w: veys _ _ _ the _|sons _ of|men, And|how _ their|coun- * sels|move.|
w: like _ _ _ a _|tim- * 'rous|bird, To|dis- * tant|moun- * tains|fly?|
w: am- * * * bush _|to _ de-|stroy The|man _ of|up- * right|heart.|
V:2
 G4 | G8 A4 | G8 D4 | G8 G4 | E8 G4 | G8 A4 | G4 ^F8 | G8 G4 | (A2 G2 F2 E2) D4 | G8 G4 | E8 A4 | %11
w: The|Lord hath|both a|tem- ple|here, And|right- eous|throne a-|bove, Whence|he _ _ _ sur-|veys the|sons of|
w: Since|I have|placed my|trust in|God, A|re- fuge|al- ways|nigh, Why|should _ _ _ I,|like a|tim- 'rous|
w: Be-|hold, the|wick- ed|bend their|bow, And|rea- dy|fix their|dart; Lurk-|ing _ _ _ in|am- bush|to de-|
 G8 G4 | (G3 F E4) (F2 G2) | A4 (G6 F2) | E8 |] %15
w: men, And|how _ _ their _|coun- sels _|move.|
w: bird, To|dis- * * tant _|moun- tains _|fly?|
w: stroy The|man _ _ of _|up- right _|heart.|
V:3
 c4 | e8 (f3 e) | (d6 c2) B4 | (c3 d e4) d4 | c8 B4 | (c6 d2) (e3 d) | (c3 B) A8 | G12 | G4 c4 d4 | %9
w: The|Lord hath _|both _ a|tem- * * ple|here, And|right- * eous _|throne _ a-|bove,|Whence he sur-|
w: Since|I have _|placed _ my|trust _ _ in|God, A|re- * fuge _|al- * ways|nigh,|Why should I,|
w: Be-|hold, the _|wick- * ed|bend _ _ their|bow, And|rea- * dy _|fix _ their|dart;|Lurk- ing in|
 (e2 d2 c2 B2) (A2 G2) | c8 (f2 e2) | d8 d4 | (e3 d c4) (d2 e2) | f4 (Td6 c2) | c8 |] %15
w: veys _ _ _ the _|sons of _|men, And|how _ _ their _|coun- sels _|move.|
w: like _ _ _ a _|tim- 'rous _|bird, To|dis- * * tant _|moun- tains _|fly?|
w: am- * * * bush _|to de- *|stroy The|man _ _ of _|up- right _|heart.|
V:4
 C,4 | C8 F,4 | G,8 G,4 | (E,3 D, C,4) G,,4 | C,8 G,4 | (C,6 B,,2) (A,,3 B,,) | C,4 D,8 | G,,12 | %8
w: The|Lord hath|both a|tem- * * ple|here, And|right- * eous _|throne a-|bove,|
w: Since|I have|placed my|trust _ _ in|God, A|re- * fuge _|al- ways|nigh,|
w: Be-|hold, the|wick- ed|bend _ _ their|bow, And|rea- * dy _|fix their|dart;|
"^Emendations:The order of staves in the source is the same as in this edition: while no indication of which part is the treble and whichis the tenor in this piece, the first piece in the book starts with a 'Treble solo', which is printed on the first stave of thefour-stave system, all other staves having rests printed.The alto part is notated in the alto clef in the source.The only indications of the text in the source are the title 'Ps. 11th' and fragments of the first verse of text, 'Since I haveplac'd &c' and ' Why should &c'. The first verse and a selection of three further verses have been underlaid editorially." C,4 C4 G,4 | %9
w: Whence he sur-|
w: Why should I,|
w: Lurk- ing in|
 E,8 G,4 | (A,2 G,2 F,2 E,2) (D,2 C,2) | G,8 G,4 | (C3 D E4) (D2 C2) | F,4 G,8 | C,8 |] %15
w: veys the|sons _ _ _ of _|men, And|how _ _ their _|coun- sels|move.|
w: like a|tim- * * * 'rous _|bird, To|dis- * * tant _|moun- tains|fly?|
w: am- bush|to _ _ _ de- *|stroy The|man _ _ of _|up- right|heart.|

